X:1
T:O all ye people, clap your hands
T:O all ye people, clap your hands (John Smith)
C:John Smith
Z:Text: Tate/Brady, on Ps. 47
%%score [ 1 2 3 4 ]
L:1/8
M:3/2
K:Cmin
V:1 treble nm="Soprano" snm="S."
V:2 treble nm="Alto" snm="A."
V:3 treble-8 transpose=-12 nm="Tenor" snm="T."
V:4 bass nm="Bass" snm="B."
V:1
 c4 | (c4 =B4) c4 | (d4 c4) d4 | (c3 d e2 c2) (d2 =B2) | G8 c4 | (B3 c d4) e4 | (f4 e4) d4 | %7
w: God|is _ gone|up, _ our|Lord _ _ _ and _|King, With|shouts _ _ of|joy _ and|
w: O|all _ ye|peo- * ple,|clap _ _ _ your _|hands, And|with _ _ tri-|um- * phant|
w: He|shall _ op-|pos- * ing|na- * * * tions _|quell, And|with _ _ suc-|cess _ our|
 B8 B4 | B8 G4 | (c3 B A4) G4 | (c3 d e4) d4 | (c4 d4) (e2 c2) | d8 B4 | (c4 d4) e4 | (d4 c4) d4 | %15
w: trum- pet's|sound; To|him _ _ re-|peat- * * ed|prai- * ses _|sing, And|let _ the|cheer- * ful|
w: voi- ces|sing; No|force _ _ the|migh- * * ty|pow’r _ with- *|stands Of|God, _ the|u- * ni-|
w: bat- tles|fight; Shall|fix _ _ the|place _ _ where|we _ must _|dwell, The|pride _ of|Ja- * cob,|
 (c3 d e2 c2) (d2 =B2) | G8 |] %17
w: song _ _ _ go _|round.|
w: ver- * * * sal _|King.|
w: his _ _ _ de- *|light.|
V:2
 C4 | (G4 F4) E4 | (F4 G4) A4 | (G3 F E4) D4 | C8 G4 | (E4 F4) G4 | (F4 G4) A4 | G8 G4 | G8 D4 | %9
w: God|is _ gone|up, _ our|Lord _ _ and|King, With|shouts _ of|joy _ and|trum- pet's|sound; To|
w: O|all _ ye|peo- * ple,|clap _ _ your|hands, And|with _ tri-|um- * phant|voi- ces|sing; No|
w: He|shall _ op-|pos- * ing|na- * * tions|quell, And|with _ suc-|cess _ our|bat- tles|fight; Shall|
 (E4 D4) E4 | (F4 E4) F4 | (G4 F4) E4 | D8 G4 | (E4 F4) G4 | (F4 G4) A4 | (G3 F E4) D4 | C8 |] %17
w: him _ re-|peat- * ed|prai- * ses|sing, And|let _ the|cheer- * ful|song _ _ go|round.|
w: force _ the|migh- * ty|pow’r _ with-|stands Of|God, _ the|u- * ni-|ver- * * sal|King.|
w: fix _ the|place _ where|we _ must|dwell, The|pride _ of|Ja- * cob,|his _ _ de-|light.|
V:3
 c4 | (c4 d4) e4 | (d4 e4) f4 | (e3 d c4) =B4 | c8 c4 | (e4 d4) c4 | (d4 e4) f4 | e8 d4 | e8 d4 | %9
w: God|is _ gone|up, _ our|Lord _ _ and|King, With|shouts _ of|joy _ and|trum- pet's|sound; To|
w: O|all _ ye|peo- * ple,|clap _ _ your|hands, And|with _ tri-|um- * phant|voi- ces|sing; No|
w: He|shall _ op-|pos- * ing|na- * * tions|quell, And|with _ suc-|cess _ our|bat- tles|fight; Shall|
 (c4 d4) =B4 | c8 d4 | (e4 d4) c4 | =B8 d4 | (e4 d4) c4 | (d4 e4) f4 | (e3 d c4) =B4 | c8 |] %17
w: him _ re-|peat- ed|prai- * ses|sing, And|let _ the|cheer- * ful|song _ _ go|round.|
w: force _ the|migh- ty|pow’r _ with-|stands Of|God, _ the|u- * ni-|ver- * * sal|King.|
w: fix _ the|place where|we _ must|dwell, The|pride _ of|Ja- * cob,|his _ _ de-|light.|
V:4
 C,4 | (E,4 D,4) C,4 | (F,4 E,4) D,4 | (E,3 F, G,4) G,,4 | C,8 E,4 | (G,4 F,4) E,4 | %6
w: God|is _ gone|up, _ our|Lord _ _ and|King, With|shouts _ of|
w: O|all _ ye|peo- * ple,|clap _ _ your|hands, And|with _ tri-|
w: He|shall _ op-|pos- * ing|na- * * tions|quell, And|with _ suc-|
 (A,4 G,4) F,4 | (G,3 A, B,4) B,,4 | E,8 G,4 | (E,4 F,4) G,4 | (A,4 G,4) F,4 | %11
w: joy _ and|trum- * * pet's|sound; To|him _ re-|peat- * ed|
w: um- * phant|voi- * * ces|sing; No|force _ the|migh- * ty|
w: cess _ our|bat- * * tles|fight; Shall|fix _ the|place _ where|
"^Emendations: The order of staves in the source is the same as in this edition: no indication is given of the allocationof the treble and tenor parts. The alto part is notated in the source in the treble clef an octave above sounding pitch.The only indication of the text given in the source is the title 'Psalm ye 47th N.V.': four verses of the text have beenunderlaid editorially." (C4 =B,4) C4 | %12
w: prai- * ses|
w: pow’r _ with-|
w: we _ must|
 G,8 G,4 | (G,4 F,4) E,4 | (F,4 E,4) D,4 | (E,3 F, G,4) G,,4 | C,8 |] %17
w: sing, And|let _ the|cheer- * ful|song _ _ go|round.|
w: stands Of|God, _ the|u- * ni-|ver- * * sal|King.|
w: dwell, The|pride _ of|Ja- * cob,|his _ _ de-|light.|

